X:2004
T:Bank of Turf, The
R:jig
M:6/8
K:D
B|:~A3 DFA|BAF DFA|dcd ede|fef def|
|~g2f gab|afd Bcd|1 ede efd|cBA Bcd|2 ede efe | d3 dcd:|
|:eAA efg|~f2e fga|gfe fed|edB ABd|
|eAA efg|~f2e fga|gfe dcB|1 A3 ABd| A3 dcB:|
